Obsidian/actions/22s/view-grid.svg

<svg xmlns="http://www.w3.org/2000/svg" width="22" height="22" viewBox="0 0 22 22">
 <defs>
  <style id="current-color-scheme" type="text/css">
   .ColorScheme-Text { color:#bebebe; } .ColorScheme-Highlight { color:#4285f4; }
  </style>
 </defs>
 <path style="fill:currentColor" class="ColorScheme-Text" d="M 1.25 3.0039062 C 1.1115 3.0039063 1 3.1154062 1 3.2539062 L 1 4.7539062 C 1 4.8924062 1.1115 5.0039062 1.25 5.0039062 L 2.75 5.0039062 C 2.8885 5.0039062 3 4.8924062 3 4.7539062 L 3 3.2539062 C 3 3.1154062 2.8885 3.0039062 2.75 3.0039062 L 1.25 3.0039062 z M 5.25 3.0039062 C 5.1115 3.0039063 5 3.1154062 5 3.2539062 L 5 4.7539062 C 5 4.8924062 5.1115 5.0039062 5.25 5.0039062 L 6.75 5.0039062 C 6.8885 5.0039062 7 4.8924062 7 4.7539062 L 7 3.2539062 C 7 3.1154062 6.8885 3.0039062 6.75 3.0039062 L 5.25 3.0039062 z M 9.25 3.0039062 C 9.1115 3.0039063 9 3.1154062 9 3.2539062 L 9 4.7539062 C 9 4.8924062 9.1115 5.0039062 9.25 5.0039062 L 10.75 5.0039062 C 10.8885 5.0039062 11 4.8924062 11 4.7539062 L 11 3.2539062 C 11 3.1154062 10.8885 3.0039062 10.75 3.0039062 L 9.25 3.0039062 z M 13.25 3.0039062 C 13.1115 3.0039063 13 3.1154062 13 3.2539062 L 13 4.7539062 C 13 4.8924062 13.1115 5.0039062 13.25 5.0039062 L 14.75 5.0039062 C 14.8885 5.0039062 15 4.8924062 15 4.7539062 L 15 3.2539062 C 15 3.1154062 14.8885 3.0039062 14.75 3.0039062 L 13.25 3.0039062 z M 1.25 7.0039062 C 1.1115 7.0039063 1 7.1154063 1 7.2539062 L 1 8.7539062 C 1 8.8924063 1.1115 9.0039062 1.25 9.0039062 L 2.75 9.0039062 C 2.8885 9.0039062 3 8.8924063 3 8.7539062 L 3 7.2539062 C 3 7.1154063 2.8885 7.0039062 2.75 7.0039062 L 1.25 7.0039062 z M 5.25 7.0039062 C 5.1115 7.0039063 5 7.1154063 5 7.2539062 L 5 8.7539062 C 5 8.8924063 5.1115 9.0039062 5.25 9.0039062 L 6.75 9.0039062 C 6.8885 9.0039062 7 8.8924063 7 8.7539062 L 7 7.2539062 C 7 7.1154063 6.8885 7.0039062 6.75 7.0039062 L 5.25 7.0039062 z M 9.25 7.0039062 C 9.1115 7.0039063 9 7.1154063 9 7.2539062 L 9 8.7539062 C 9 8.8924063 9.1115 9.0039062 9.25 9.0039062 L 10.75 9.0039062 C 10.8885 9.0039062 11 8.8924063 11 8.7539062 L 11 7.2539062 C 11 7.1154063 10.8885 7.0039062 10.75 7.0039062 L 9.25 7.0039062 z M 13.25 7.0039062 C 13.1115 7.0039063 13 7.1154063 13 7.2539062 L 13 8.7539062 C 13 8.8924063 13.1115 9.0039062 13.25 9.0039062 L 14.75 9.0039062 C 14.8885 9.0039062 15 8.8924063 15 8.7539062 L 15 7.2539062 C 15 7.1154063 14.8885 7.0039062 14.75 7.0039062 L 13.25 7.0039062 z M 1.25 11.003906 C 1.1115 11.003906 1 11.115406 1 11.253906 L 1 12.753906 C 1 12.892406 1.1115 13.003906 1.25 13.003906 L 2.75 13.003906 C 2.8885 13.003906 3 12.892406 3 12.753906 L 3 11.253906 C 3 11.115406 2.8885 11.003906 2.75 11.003906 L 1.25 11.003906 z M 5.25 11.003906 C 5.1115 11.003906 5 11.115406 5 11.253906 L 5 12.753906 C 5 12.892406 5.1115 13.003906 5.25 13.003906 L 6.75 13.003906 C 6.8885 13.003906 7 12.892406 7 12.753906 L 7 11.253906 C 7 11.115406 6.8885 11.003906 6.75 11.003906 L 5.25 11.003906 z M 9.25 11.003906 C 9.1115 11.003906 9 11.115406 9 11.253906 L 9 12.753906 C 9 12.892406 9.1115 13.003906 9.25 13.003906 L 10.75 13.003906 C 10.8885 13.003906 11 12.892406 11 12.753906 L 11 11.253906 C 11 11.115406 10.8885 11.003906 10.75 11.003906 L 9.25 11.003906 z M 13.25 11.003906 C 13.1115 11.003906 13 11.115406 13 11.253906 L 13 12.753906 C 13 12.892406 13.1115 13.003906 13.25 13.003906 L 14.75 13.003906 C 14.8885 13.003906 15 12.892406 15 12.753906 L 15 11.253906 C 15 11.115406 14.8885 11.003906 14.75 11.003906 L 13.25 11.003906 z" transform="translate(3 3)"/>
</svg>

<svg height="22" viewBox="0 0 22 22" width="22" xmlns="http://www.w3.org/2000/svg"><path d="m1.25 3.0039062c-.1385.0000001-.25.1115-.25.25v1.5c0 .1385.1115.25.25.25h1.5c.1385 0 .25-.1115.25-.25v-1.5c0-.1385-.1115-.25-.25-.25zm4 0c-.1385.0000001-.25.1115-.25.25v1.5c0 .1385.1115.25.25.25h1.5c.1385 0 .25-.1115.25-.25v-1.5c0-.1385-.1115-.25-.25-.25zm4 0c-.1385.0000001-.25.1115-.25.25v1.5c0 .1385.1115.25.25.25h1.5c.1385 0 .25-.1115.25-.25v-1.5c0-.1385-.1115-.25-.25-.25zm4 0c-.1385.0000001-.25.1115-.25.25v1.5c0 .1385.1115.25.25.25h1.5c.1385 0 .25-.1115.25-.25v-1.5c0-.1385-.1115-.25-.25-.25zm-12 4c-.1385.0000001-.25.1115001-.25.25v1.5c0 .1385001.1115.25.25.25h1.5c.1385 0 .25-.1114999.25-.25v-1.5c0-.1384999-.1115-.25-.25-.25zm4 0c-.1385.0000001-.25.1115001-.25.25v1.5c0 .1385001.1115.25.25.25h1.5c.1385 0 .25-.1114999.25-.25v-1.5c0-.1384999-.1115-.25-.25-.25zm4 0c-.1385.0000001-.25.1115001-.25.25v1.5c0 .1385001.1115.25.25.25h1.5c.1385 0 .25-.1114999.25-.25v-1.5c0-.1384999-.1115-.25-.25-.25zm4 0c-.1385.0000001-.25.1115001-.25.25v1.5c0 .1385001.1115.25.25.25h1.5c.1385 0 .25-.1114999.25-.25v-1.5c0-.1384999-.1115-.25-.25-.25zm-12 3.9999998c-.1385 0-.25.1115-.25.25v1.5c0 .1385.1115.25.25.25h1.5c.1385 0 .25-.1115.25-.25v-1.5c0-.1385-.1115-.25-.25-.25zm4 0c-.1385 0-.25.1115-.25.25v1.5c0 .1385.1115.25.25.25h1.5c.1385 0 .25-.1115.25-.25v-1.5c0-.1385-.1115-.25-.25-.25zm4 0c-.1385 0-.25.1115-.25.25v1.5c0 .1385.1115.25.25.25h1.5c.1385 0 .25-.1115.25-.25v-1.5c0-.1385-.1115-.25-.25-.25zm4 0c-.1385 0-.25.1115-.25.25v1.5c0 .1385.1115.25.25.25h1.5c.1385 0 .25-.1115.25-.25v-1.5c0-.1385-.1115-.25-.25-.25z" fill="#bebebe" transform="translate(3 3)"/></svg>
